src/lib/packages/icons/src/assets/line/whistle.svg

<svg width="24" height="24" viewBox="0 0 24 24" fill="none" xmlns="http://www.w3.org/2000/svg">
<path d="M12.75 5V3C12.75 2.59 13.09 2.25 13.5 2.25C13.91 2.25 14.25 2.59 14.25 3V5C14.25 5.41 13.91 5.75 13.5 5.75C13.09 5.75 12.75 5.41 12.75 5ZM16 6.5C16.19 6.5 16.3801 6.43 16.5301 6.28L17.5301 5.28C17.8201 4.99 17.8201 4.51 17.5301 4.22C17.2401 3.93 16.76 3.93 16.47 4.22L15.47 5.22C15.18 5.51 15.18 5.99 15.47 6.28C15.62 6.43 15.81 6.5 16 6.5ZM10.47 6.28C10.62 6.43 10.81 6.5 11 6.5C11.19 6.5 11.3801 6.43 11.5301 6.28C11.8201 5.99 11.8201 5.51 11.5301 5.22L10.5301 4.22C10.2401 3.93 9.76 3.93 9.47 4.22C9.18 4.51 9.18 4.99 9.47 5.28L10.47 6.28ZM10.94 13.06C11.46 13.58 11.75 14.27 11.75 15C11.75 15.73 11.46 16.43 10.94 16.94C10.4 17.48 9.70003 17.74 9.00003 17.74C8.30003 17.74 7.59002 17.47 7.06002 16.94C6.54002 16.42 6.25003 15.73 6.25003 15C6.25003 14.27 6.54002 13.57 7.06002 13.06C8.13002 11.99 9.88004 11.99 10.95 13.06H10.94ZM10.25 15C10.25 14.67 10.12 14.35 9.88003 14.12C9.64003 13.88 9.32003 13.75 9.00003 13.75C8.68003 13.75 8.36002 13.87 8.12002 14.12C7.88002 14.36 7.75003 14.67 7.75003 15C7.75003 15.33 7.88002 15.65 8.12002 15.88C8.61002 16.37 9.40004 16.37 9.89004 15.88C10.13 15.64 10.26 15.33 10.26 15H10.25ZM21.75 9.5V12.62C21.75 13.18 21.3801 13.67 20.8401 13.82L15.74 15.28C15.67 16.96 14.97 18.57 13.77 19.77C12.5 21.05 10.81 21.75 9.00003 21.75C7.20003 21.75 5.50001 21.05 4.23001 19.77C2.95001 18.5 2.25003 16.8 2.25003 15C2.25003 13.72 2.61005 12.51 3.27005 11.45L2.91 11.09C2.03 10.21 2.03 8.79 2.91 7.91C3.79 7.03 5.21005 7.03 6.09005 7.91L6.80001 8.62C7.50001 8.38 8.24003 8.25 9.00003 8.25H11.64C12.18 8.25 12.65 8.59001 12.83 9.10001L13.04 9.75H13.96L14.17 9.10001C14.34 8.59001 14.82 8.25 15.36 8.25H20.5C21.19 8.25 21.75 8.81 21.75 9.5ZM4.20004 10.26C4.20004 10.26 4.22001 10.24 4.23001 10.23C4.58001 9.88 4.96002 9.58 5.37002 9.31L5.03006 8.97C4.73006 8.67 4.27 8.67 3.97 8.97C3.67 9.27 3.67 9.73 3.97 10.03L4.20004 10.26ZM20.25 9.75H15.54L15.33 10.4C15.16 10.91 14.68 11.25 14.14 11.25H12.86C12.32 11.25 11.85 10.91 11.67 10.4L11.46 9.75H9.00003C8.28003 9.75 7.58003 9.9 6.94003 10.17C6.92003 10.17 6.90004 10.19 6.89004 10.2C6.30004 10.46 5.76001 10.82 5.30001 11.29C4.30001 12.28 3.75003 13.6 3.75003 15C3.75003 16.4 4.3 17.72 5.29 18.71C6.28 19.71 7.60003 20.25 9.00003 20.25C10.4 20.25 11.72 19.7 12.71 18.71C13.76 17.67 14.31 16.23 14.24 14.76C14.22 14.41 14.4501 14.1 14.7801 14L20.24 12.44V9.75999L20.25 9.75Z" fill="currentColor"/>
</svg>

<svg xmlns="http://www.w3.org/2000/svg" width="24" height="24" fill="none"><path fill="currentColor" d="M12.75 5V3c0-.41.34-.75.75-.75s.75.34.75.75v2c0 .41-.34.75-.75.75s-.75-.34-.75-.75ZM16 6.5c.19 0 .38-.07.53-.22l1-1c.29-.29.29-.77 0-1.06a.755.755 0 0 0-1.06 0l-1 1c-.29.29-.29.77 0 1.06.15.15.34.22.53.22Zm-5.53-.22c.15.15.34.22.53.22s.38-.07.53-.22c.29-.29.29-.77 0-1.06l-1-1a.755.755 0 0 0-1.06 0c-.29.29-.29.77 0 1.06l1 1Zm.47 6.78a2.732 2.732 0 0 1 0 3.88c-.54.54-1.24.8-1.94.8A2.75 2.75 0 0 1 6.25 15c0-.73.29-1.43.81-1.94a2.758 2.758 0 0 1 3.89 0h-.01ZM10.25 15c0-.33-.13-.65-.37-.88-.24-.24-.56-.37-.88-.37-.32 0-.64.12-.88.37a1.234 1.234 0 0 0 0 1.76c.49.49 1.28.49 1.77 0 .24-.24.37-.55.37-.88h-.01Zm11.5-5.5v3.12c0 .56-.37 1.05-.91 1.2l-5.1 1.46a6.758 6.758 0 0 1-1.97 4.49A6.66 6.66 0 0 1 9 21.75c-1.8 0-3.5-.7-4.77-1.98A6.678 6.678 0 0 1 2.25 15c0-1.28.36-2.49 1.02-3.55l-.36-.36c-.88-.88-.88-2.3 0-3.18.88-.88 2.3-.88 3.18 0l.71.71c.7-.24 1.44-.37 2.2-.37h2.64c.54 0 1.01.34 1.19.85l.21.65h.92l.21-.65c.17-.51.65-.85 1.19-.85h5.14c.69 0 1.25.56 1.25 1.25Zm-17.55.76.03-.03c.35-.35.73-.65 1.14-.92l-.34-.34c-.3-.3-.76-.3-1.06 0-.3.3-.3.76 0 1.06l.23.23Zm16.05-.51h-4.71l-.21.65c-.17.51-.65.85-1.19.85h-1.28c-.54 0-1.01-.34-1.19-.85l-.21-.65H9c-.72 0-1.42.15-2.06.42-.02 0-.04.02-.05.03-.59.26-1.13.62-1.59 1.09-1 .99-1.55 2.31-1.55 3.71s.55 2.72 1.54 3.71c.99 1 2.31 1.54 3.71 1.54s2.72-.55 3.71-1.54a5.21 5.21 0 0 0 1.53-3.95c-.02-.35.21-.66.54-.76l5.46-1.56V9.76l.01-.01Z"/></svg>
